media/icon-filled.svg

<?xml version="1.0" encoding="UTF-8"?>
<svg clip-rule="evenodd" fill-rule="evenodd" stroke-linecap="round" stroke-linejoin="round" version="1.1" viewBox="0 0 142 107" xml:space="preserve" xmlns="http://www.w3.org/2000/svg">
    <g transform="translate(-215.29 -465.82)">
        <g transform="translate(193.34 1.2198)">
            <g transform="matrix(6.1858 0 0 6.1858 18.267 448.55)">
                <rect x="1" y="3" width="15" height="13" stroke="#000" stroke-width=".81px"/>
            </g>
        
        
            <g transform="matrix(.99364 0 0 .99364 -207.08 398.84)">
                <g transform="matrix(80.539 0 0 80.539 257.92 136.83)">
                    <path d="m0.017-0.015c0 0.017 1e-3 0.021 0.015 0.021 0.023 0 0.075-3e-3 0.105-3e-3s0.079 3e-3 0.102 3e-3c0.012 0 0.012-5e-3 0.012-0.02 0-0.012 0-0.016-0.012-0.016h-0.067c-5e-3 0-6e-3 -2e-3 -5e-3 -6e-3 5e-3 -0.044 0.036-0.262 0.039-0.278 2e-3 -8e-3 2e-3 -8e-3 0.017-8e-3h0.143c0.043 0 0.047 4e-3 0.047 0.011 0 3e-3 -7e-3 0.045-9e-3 0.058-1e-3 0.01 0.012 0.01 0.02 0.01 7e-3 0 0.015-2e-3 0.016-9e-3 2e-3 -0.013 6e-3 -0.047 0.012-0.079 7e-3 -0.038 0.014-0.068 0.014-0.078 0-8e-3 -0.01-9e-3 -0.016-9e-3 -7e-3 0-0.018 0-0.019 9e-3l-8e-3 0.043c-2e-3 9e-3 -0.024 0.011-0.044 0.011h-0.156c-0.013 0-0.012 0-0.012-4e-3 0-2e-3 0-5e-3 1e-3 -9e-3 5e-3 -0.035 0.033-0.243 0.04-0.267 0.1 0 0.214 3e-3 0.232 6e-3 -1e-3 0.012-5e-3 0.066-5e-3 0.071 0 0.011-1e-3 0.017 0.017 0.017 0.016 0 0.019-3e-3 0.019-0.013 2e-3 -0.069 9e-3 -0.117 9e-3 -0.125 0-0.014-4e-3 -0.014-0.02-0.014-9e-3 0-0.014 1e-3 -0.016 0.015-1e-3 9e-3 2e-3 0.01-0.066 0.01-0.043 0-0.156 3e-3 -0.209 3e-3 -0.035 0-0.107-3e-3 -0.114-3e-3 -9e-3 0-0.015 4e-3 -0.015 0.017 0 0.017 0.01 0.018 0.022 0.018h0.054s1e-3 3e-3 1e-3 7e-3c0 0.076-0.077 0.556-0.083 0.596h-0.042c-0.016 0-0.019 1e-3 -0.019 0.015z" fill="#fff" fill-rule="nonzero"/>
                </g>
            </g>
        
        
            <g transform="matrix(6.1858 0 0 6.1858 18.267 448.55)">
                <path d="m16 8h4l0.633 0.633c1.515 1.515 2.367 3.571 2.367 5.715v1.652h-7v-8z" fill-rule="nonzero" stroke="#000" stroke-width=".81px"/>
            </g>
        
        
            <g transform="matrix(3.8821 0 0 3.8821 -383.13 392.09)">
                <rect x="130.32" y="29.096" width="5.436" height="4.157"/>
            </g>
        
        
            <g transform="matrix(6.1858 0 0 6.1858 18.267 438.45)">
                <circle cx="5.5" cy="18.5" r="2.5" stroke="#000" stroke-width=".81px"/>
            </g>
        
        
            <g transform="matrix(6.1858 0 0 6.1858 18.903 438.45)">
                <circle cx="18.5" cy="18.5" r="2.5" stroke="#000" stroke-width=".81px"/>
            </g>
        </g>
    </g>
</svg>

<?xml version="1.0" encoding="UTF-8" standalone="no"?>
<!DOCTYPE svg PUBLIC "-//W3C//DTD SVG 1.1//EN" "http://www.w3.org/Graphics/SVG/1.1/DTD/svg11.dtd">
<svg width="100%" height="100%" viewBox="0 0 142 107" version="1.1" xmlns="http://www.w3.org/2000/svg" xmlns:xlink="http://www.w3.org/1999/xlink" xml:space="preserve" xmlns:serif="http://www.serif.com/" style="fill-rule:evenodd;clip-rule:evenodd;stroke-linecap:round;stroke-linejoin:round;">
    <g transform="matrix(1,0,0,1,-215.294,-465.823)">
        <g transform="matrix(1,0,0,1,193.342,1.21982)">
            <g transform="matrix(6.18575,0,0,6.18575,18.2669,448.546)">
                <rect x="1" y="3" width="15" height="13" style="stroke:black;stroke-width:0.81px;"/>
            </g>
        </g>
        <g transform="matrix(1,0,0,1,193.342,1.21982)">
            <g transform="matrix(0.993636,0,0,0.993636,-207.084,398.836)">
                <g transform="matrix(80.5387,0,0,80.5387,257.924,136.834)">
                    <path d="M0.017,-0.015C0.017,0.002 0.018,0.006 0.032,0.006C0.055,0.006 0.107,0.003 0.137,0.003C0.167,0.003 0.216,0.006 0.239,0.006C0.251,0.006 0.251,0.001 0.251,-0.014C0.251,-0.026 0.251,-0.03 0.239,-0.03L0.172,-0.03C0.167,-0.03 0.166,-0.032 0.167,-0.036C0.172,-0.08 0.203,-0.298 0.206,-0.314C0.208,-0.322 0.208,-0.322 0.223,-0.322L0.366,-0.322C0.409,-0.322 0.413,-0.318 0.413,-0.311C0.413,-0.308 0.406,-0.266 0.404,-0.253C0.403,-0.243 0.416,-0.243 0.424,-0.243C0.431,-0.243 0.439,-0.245 0.44,-0.252C0.442,-0.265 0.446,-0.299 0.452,-0.331C0.459,-0.369 0.466,-0.399 0.466,-0.409C0.466,-0.417 0.456,-0.418 0.45,-0.418C0.443,-0.418 0.432,-0.418 0.431,-0.409L0.423,-0.366C0.421,-0.357 0.399,-0.355 0.379,-0.355L0.223,-0.355C0.21,-0.355 0.211,-0.355 0.211,-0.359C0.211,-0.361 0.211,-0.364 0.212,-0.368C0.217,-0.403 0.245,-0.611 0.252,-0.635C0.352,-0.635 0.466,-0.632 0.484,-0.629C0.483,-0.617 0.479,-0.563 0.479,-0.558C0.479,-0.547 0.478,-0.541 0.496,-0.541C0.512,-0.541 0.515,-0.544 0.515,-0.554C0.517,-0.623 0.524,-0.671 0.524,-0.679C0.524,-0.693 0.52,-0.693 0.504,-0.693C0.495,-0.693 0.49,-0.692 0.488,-0.678C0.487,-0.669 0.49,-0.668 0.422,-0.668C0.379,-0.668 0.266,-0.665 0.213,-0.665C0.178,-0.665 0.106,-0.668 0.099,-0.668C0.09,-0.668 0.084,-0.664 0.084,-0.651C0.084,-0.634 0.094,-0.633 0.106,-0.633L0.16,-0.633C0.16,-0.633 0.161,-0.63 0.161,-0.626C0.161,-0.55 0.084,-0.07 0.078,-0.03L0.036,-0.03C0.02,-0.03 0.017,-0.029 0.017,-0.015Z" style="fill:white;fill-rule:nonzero;"/>
                </g>
            </g>
        </g>
        <g transform="matrix(1,0,0,1,193.342,1.21982)">
            <g transform="matrix(6.18575,0,0,6.18575,18.2669,448.546)">
                <path d="M16,8L20,8C20,8 20.263,8.263 20.633,8.633C22.148,10.148 23,12.204 23,14.348L23,16L16,16L16,8Z" style="fill-rule:nonzero;stroke:black;stroke-width:0.81px;"/>
            </g>
        </g>
        <g transform="matrix(1,0,0,1,193.342,1.21982)">
            <g transform="matrix(3.8821,0,0,3.8821,-383.132,392.093)">
                <rect x="130.321" y="29.096" width="5.436" height="4.157"/>
            </g>
        </g>
        <g transform="matrix(1,0,0,1,193.342,1.21982)">
            <g transform="matrix(6.18575,0,0,6.18575,18.2669,438.448)">
                <circle cx="5.5" cy="18.5" r="2.5" style="stroke:black;stroke-width:0.81px;"/>
            </g>
        </g>
        <g transform="matrix(1,0,0,1,193.342,1.21982)">
            <g transform="matrix(6.18575,0,0,6.18575,18.9034,438.448)">
                <circle cx="18.5" cy="18.5" r="2.5" style="stroke:black;stroke-width:0.81px;"/>
            </g>
        </g>
    </g>
</svg>
